build/system/ArrowLeftSolid.svg

<svg xmlns="http://www.w3.org/2000/svg" fill="none" viewBox="0 0 24 24" focusable="false"><path d="M0 0H24V24H0z"/><path fill="#74767B" fill-rule="evenodd" d="M21 12C21 7.02944 16.9706 3 12 3C7.02944 3 3 7.02944 3 12C3 16.9706 7.02944 21 12 21C16.9706 21 21 16.9706 21 12ZM11.5 16.5582C11.68 16.5582 11.85 16.4882 11.98 16.3482C12.22 16.0782 12.2 15.6682 11.94 15.4282L9.05238 12.5945L16 12.5945C16.359 12.5945 16.65 12.3035 16.65 11.9445C16.65 11.5855 16.359 11.2945 16 11.2945L9.05944 11.2945L11.96 8.47817C12.23 8.23817 12.24 7.82817 12 7.55817C11.76 7.29817 11.35 7.27817 11.08 7.51817L7.02 11.4245C6.71 11.7045 6.71 12.1845 7.02 12.4645L11.06 16.3882C11.19 16.5082 11.34 16.5582 11.5 16.5582Z"/></svg>

<svg xmlns="http://www.w3.org/2000/svg" fill="none" viewBox="0 0 24 24" focusable="false"><path fill="#74767B" fill-rule="evenodd" d="M21 12c0-4.98-4.03-9-9-9-4.98 0-9 4.02-9 9 0 4.97 4.02 9 9 9a9 9 0 0 0 9-9m-9.5 4.55a.645.645 0 0 0 .43-1.13l-2.88-2.83H16c.35 0 .64-.29.64-.65s-.29-.65-.64-.65H9.05l2.91-2.82a.65.65 0 0 0 .04-.92.66.66 0 0 0-.92-.04l-4.06 3.91c-.32.28-.32.76 0 1.04l4.04 3.92c.12.12.27.17.44.17"/></svg>
